X: 7
T: The Ruined Old Cottage In The Glen
R: reel
M: 4/4
L: 1/8
K: Edor
B2AF DEFA|BdAd (3Bcd ef|dBAF DEFA|BdAF FE E2|
B2AF DEFA|(3Bcd Ad (3Bcd ef|dBAF DEFA|(3Bcd AF FE E2||
Beed BddA|Beef gfed|Beed BddA|(3Bcd AF FE E2|
Beed BddA|(3Bcd ef g3a|b2af gefd|BdAF FE E2||

